X: 4035
M: C|
L: 1/8
K: D
(ude) |\
f2AA A2dc | BABd e2(de) |\
f2A2 gfed | BABc d2 :|\
defg a2(gf) | bagf e2A2 |
defg abag | fefg a2A2 |\
defg a2(gf) | bagf e2(de) |\
f2A2 gfed | BABc d2 |]


